X:16
T:Polska fr{\aa}n \"Alvdalen
R:polska K1
A:\"Alvdalen, Dalarna
Z:id:hn-k1-16
M:3/4
L:1/8
K:Am
e2 ^gb a>a|a2 =g/a/g/e/ f>f|S f>e d<e f>g|a2 f/a/f/d/ e>e|
e2 ^gb a>a|a2 =g/a/g/e/ f>f|S f>e d<e f>g|S af/d/ e4:|
|:B2 c/B/c/d/ e>c|B2 AB c>c|B2 c/B/c/d/ e>c|B2 AG E2|
B2 c/B/c/d/ e>c|B2 AB c>c|B2 c/B/c/d/ e>c|S B2 A4:|
<end>
<start>
